X:1
T:THE CENTENARY MARCH
L:1/8
Q:1/4=120
M:4/4
K:E
z2 |"D" z8"G" "A7"|"D" z4"G" "D"z2 B,D |:"D" F2 F>G FDB,A, |
 d2 d>A"G" BAGB |"D" F2 F>G FDCB, |"G6" B,2 B,2"A" C2 A,D |"D"F2 F>G FDB,A, |
 d2 d>A"G" BAGG |"D" F2 B>c"G" dcB"A7"A |"D" A2"G" B2"D" A2 FA ||
"D" d3 f FAdf |"A7/E" e2"D" d2"A/C#" c2"A6" d>e |"D"fdAF"D/F#" DF"G"ED |
"G6" B,2 B,>D"A" C2 D>E |"D" FA,DF AFAc | dfed"G" cBAG |
"D" Ff^ef"A7" =ecAc |1"D" A2"G" B2"D" A2 B,D :|2"D"A2"G" B2"D" A2 z2 |
